X: 18630
T: I Wish You A Merry New Year
R: jig
M: 6/8
K: Gmajor
|:D|D2 G GFG|ABA ABc|BAG c2 B|B3 A2 D|
D2 G GFG|ABA ABc|BAG AGF|F3 G2:|
|:c|Bcd dcB|ABc cdc|cBG G<cB|B3 A2 D|
D2 G GFG|ABA ABc|BAG AGF|F3 G2:|

